assets/svg/action_wallet_googleauth.svg

<svg width="80" height="80" viewBox="0 0 80 80" fill="none" xmlns="http://www.w3.org/2000/svg">
<path d="M39.9995 65.1161C53.871 65.1161 65.1161 53.871 65.1161 39.9995C65.1161 26.1279 53.871 14.8828 39.9995 14.8828C26.1279 14.8828 14.8828 26.1279 14.8828 39.9995C14.8828 53.871 26.1279 65.1161 39.9995 65.1161Z" stroke="#9A9A9A" stroke-width="1.5" stroke-linecap="round" stroke-linejoin="round"/>
<path d="M61.2133 20.0367C61.9037 20.0367 62.4633 19.477 62.4633 18.7867C62.4633 18.0963 61.9037 17.5367 61.2133 17.5367C60.523 17.5367 59.9633 18.0963 59.9633 18.7867C59.9633 19.477 60.523 20.0367 61.2133 20.0367Z" fill="#E1EAF8"/>
<path d="M61.2133 20.0367C61.9037 20.0367 62.4633 19.477 62.4633 18.7867C62.4633 18.0963 61.9037 17.5367 61.2133 17.5367C60.523 17.5367 59.9633 18.0963 59.9633 18.7867C59.9633 19.477 60.523 20.0367 61.2133 20.0367Z" fill="#E1EAF8"/>
<path d="M70 41.25C70.6904 41.25 71.25 40.6904 71.25 40C71.25 39.3096 70.6904 38.75 70 38.75C69.3096 38.75 68.75 39.3096 68.75 40C68.75 40.6904 69.3096 41.25 70 41.25Z" fill="#E1EAF8"/>
<path d="M70 41.25C70.6904 41.25 71.25 40.6904 71.25 40C71.25 39.3096 70.6904 38.75 70 38.75C69.3096 38.75 68.75 39.3096 68.75 40C68.75 40.6904 69.3096 41.25 70 41.25Z" fill="#E1EAF8"/>
<path d="M61.2133 62.4633C61.9037 62.4633 62.4633 61.9037 62.4633 61.2133C62.4633 60.523 61.9037 59.9633 61.2133 59.9633C60.523 59.9633 59.9633 60.523 59.9633 61.2133C59.9633 61.9037 60.523 62.4633 61.2133 62.4633Z" fill="#E1EAF8"/>
<path d="M61.2133 62.4633C61.9037 62.4633 62.4633 61.9037 62.4633 61.2133C62.4633 60.523 61.9037 59.9633 61.2133 59.9633C60.523 59.9633 59.9633 60.523 59.9633 61.2133C59.9633 61.9037 60.523 62.4633 61.2133 62.4633Z" fill="#E1EAF8"/>
<path d="M40 71.25C40.6904 71.25 41.25 70.6904 41.25 70C41.25 69.3096 40.6904 68.75 40 68.75C39.3096 68.75 38.75 69.3096 38.75 70C38.75 70.6904 39.3096 71.25 40 71.25Z" fill="#E1EAF8"/>
<path d="M40 71.25C40.6904 71.25 41.25 70.6904 41.25 70C41.25 69.3096 40.6904 68.75 40 68.75C39.3096 68.75 38.75 69.3096 38.75 70C38.75 70.6904 39.3096 71.25 40 71.25Z" fill="#E1EAF8"/>
<path d="M18.7867 62.4633C19.477 62.4633 20.0367 61.9037 20.0367 61.2133C20.0367 60.523 19.477 59.9633 18.7867 59.9633C18.0963 59.9633 17.5367 60.523 17.5367 61.2133C17.5367 61.9037 18.0963 62.4633 18.7867 62.4633Z" fill="#E1EAF8"/>
<path d="M18.7867 62.4633C19.477 62.4633 20.0367 61.9037 20.0367 61.2133C20.0367 60.523 19.477 59.9633 18.7867 59.9633C18.0963 59.9633 17.5367 60.523 17.5367 61.2133C17.5367 61.9037 18.0963 62.4633 18.7867 62.4633Z" fill="#E1EAF8"/>
<path d="M10 41.25C10.6904 41.25 11.25 40.6904 11.25 40C11.25 39.3096 10.6904 38.75 10 38.75C9.30964 38.75 8.75 39.3096 8.75 40C8.75 40.6904 9.30964 41.25 10 41.25Z" fill="#E1EAF8"/>
<path d="M10 41.25C10.6904 41.25 11.25 40.6904 11.25 40C11.25 39.3096 10.6904 38.75 10 38.75C9.30964 38.75 8.75 39.3096 8.75 40C8.75 40.6904 9.30964 41.25 10 41.25Z" fill="#E1EAF8"/>
<path d="M18.7867 20.0367C19.477 20.0367 20.0367 19.477 20.0367 18.7867C20.0367 18.0963 19.477 17.5367 18.7867 17.5367C18.0963 17.5367 17.5367 18.0963 17.5367 18.7867C17.5367 19.477 18.0963 20.0367 18.7867 20.0367Z" fill="#E1EAF8"/>
<path d="M18.7867 20.0367C19.477 20.0367 20.0367 19.477 20.0367 18.7867C20.0367 18.0963 19.477 17.5367 18.7867 17.5367C18.0963 17.5367 17.5367 18.0963 17.5367 18.7867C17.5367 19.477 18.0963 20.0367 18.7867 20.0367Z" fill="#E1EAF8"/>
<path d="M40 11.25C40.6904 11.25 41.25 10.6904 41.25 10C41.25 9.30964 40.6904 8.75 40 8.75C39.3096 8.75 38.75 9.30964 38.75 10C38.75 10.6904 39.3096 11.25 40 11.25Z" fill="#E1EAF8"/>
<path d="M40 11.25C40.6904 11.25 41.25 10.6904 41.25 10C41.25 9.30964 40.6904 8.75 40 8.75C39.3096 8.75 38.75 9.30964 38.75 10C38.75 10.6904 39.3096 11.25 40 11.25Z" fill="#E1EAF8"/>
<path d="M44.3769 43.0592H52.4731C53.1433 43.0592 53.786 42.7896 54.2599 42.3096C54.7338 41.8297 55 41.1787 55 40.5C55 39.8213 54.7338 39.1703 54.2599 38.6904C53.786 38.2104 53.1433 37.9408 52.4731 37.9408H44.3777L48.4254 30.8396C48.5914 30.5485 48.6991 30.2271 48.7424 29.8938C48.7857 29.5606 48.7638 29.2219 48.6778 28.8972C48.5919 28.5725 48.4437 28.2682 48.2416 28.0015C48.0395 27.7349 47.7875 27.5112 47.5 27.3432C47.2126 27.1751 46.8953 27.066 46.5662 27.0221C46.2371 26.9782 45.9027 27.0004 45.5821 27.0875C45.2616 27.1745 44.961 27.3246 44.6978 27.5293C44.4345 27.734 44.2136 27.9892 44.0477 28.2804L40 35.38M44.3769 43.0592L40 35.38M44.3769 43.0592H35.6215M44.3769 43.0592L48.4246 50.1604C48.5906 50.4515 48.6984 50.7728 48.7418 51.106C48.7851 51.4393 48.7633 51.7779 48.6774 52.1026C48.5915 52.4273 48.4434 52.7317 48.2414 52.9983C48.0393 53.265 47.7874 53.4888 47.5 53.6568C47.2126 53.825 46.8953 53.9341 46.5663 53.9781C46.2373 54.022 45.9029 53.9998 45.5823 53.9129C45.2617 53.8259 44.9612 53.6758 44.6979 53.4712C44.4346 53.2666 44.2136 53.0115 44.0477 52.7204L40 45.62L35.9523 52.7204C35.7864 53.0115 35.5654 53.2666 35.3021 53.4712C35.0388 53.6758 34.7383 53.8259 34.4177 53.9129C34.0971 53.9998 33.7627 54.022 33.4337 53.9781C33.1047 53.9341 32.7874 53.825 32.5 53.6568C32.2125 53.4888 31.9605 53.2651 31.7584 52.9985C31.5563 52.7318 31.4081 52.4275 31.3221 52.1028C31.2362 51.7781 31.2143 51.4394 31.2576 51.1062C31.3009 50.7729 31.4086 50.4515 31.5746 50.1604L35.6215 43.0592M40 35.38L38.5231 37.9704M40 35.38L35.9523 28.2796C35.7864 27.9885 35.5654 27.7334 35.3021 27.5288C35.0388 27.3242 34.7383 27.1741 34.4177 27.0871C34.0971 27.0002 33.7627 26.978 33.4337 27.022C33.1047 27.0659 32.7874 27.175 32.5 27.3432C32.2125 27.5112 31.9605 27.7349 31.7584 28.0015C31.5563 28.2682 31.4081 28.5725 31.3221 28.8972C31.2362 29.2219 31.2143 29.5606 31.2576 29.8938C31.3009 30.2271 31.4086 30.5485 31.5746 30.8396L35.6223 37.9408L38.5231 37.9704M40 35.38L35.6215 43.0592M35.6215 43.0592L38.5231 37.9704M35.6215 43.0592H27.5269C26.8567 43.0592 26.214 42.7896 25.7401 42.3096C25.2662 41.8297 25 41.1787 25 40.5C25 39.8213 25.2662 39.1703 25.7401 38.6904C26.214 38.2104 26.8567 37.9408 27.5269 37.9408L38.5231 37.9704" stroke="#0166FF" stroke-width="1.5" stroke-linecap="round" stroke-linejoin="round"/>
<rect x="57.5" y="58" width="22" height="22" rx="11" fill="#0166FF"/>
<path d="M64.5 68.8125L67.3125 71.625L72.9375 66" stroke="white" stroke-width="1.4" stroke-linecap="round" stroke-linejoin="round"/>
<path fill-rule="evenodd" clip-rule="evenodd" d="M4.91602 39.9993C4.91602 20.6234 20.6234 4.91602 39.9993 4.91602C59.3753 4.91602 75.0827 20.6234 75.0827 39.9993C75.0827 45.5414 73.7976 50.7834 71.5092 55.4434C72.0021 55.5707 72.4845 55.7241 72.9548 55.902C75.2795 51.0934 76.5827 45.6985 76.5827 39.9993C76.5827 19.7949 60.2038 3.41602 39.9993 3.41602C19.7949 3.41602 3.41602 19.7949 3.41602 39.9993C3.41602 60.2038 19.7949 76.5827 39.9993 76.5827C45.2425 76.5827 50.228 75.4797 54.7366 73.493C54.5754 73.0171 54.4391 72.5296 54.3293 72.0322C49.954 73.9925 45.104 75.0827 39.9993 75.0827C20.6234 75.0827 4.91602 59.3753 4.91602 39.9993Z" fill="#9A9A9A"/>
</svg>

<svg xmlns="http://www.w3.org/2000/svg" width="80" height="80" fill="none"><path stroke="#9A9A9A" stroke-linecap="round" stroke-linejoin="round" stroke-width="1.5" d="M40 65.116c13.871 0 25.116-11.245 25.116-25.117 0-13.871-11.245-25.116-25.117-25.116-13.871 0-25.116 11.245-25.116 25.117 0 13.871 11.245 25.116 25.117 25.116"/><path fill="#E1EAF8" d="M61.213 20.037a1.25 1.25 0 1 0 0-2.5 1.25 1.25 0 0 0 0 2.5"/><path fill="#E1EAF8" d="M61.213 20.037a1.25 1.25 0 1 0 0-2.5 1.25 1.25 0 0 0 0 2.5M70 41.25a1.25 1.25 0 1 0 0-2.5 1.25 1.25 0 0 0 0 2.5"/><path fill="#E1EAF8" d="M70 41.25a1.25 1.25 0 1 0 0-2.5 1.25 1.25 0 0 0 0 2.5M61.213 62.463a1.25 1.25 0 1 0 0-2.5 1.25 1.25 0 0 0 0 2.5"/><path fill="#E1EAF8" d="M61.213 62.463a1.25 1.25 0 1 0 0-2.5 1.25 1.25 0 0 0 0 2.5M40 71.25a1.25 1.25 0 1 0 0-2.5 1.25 1.25 0 0 0 0 2.5"/><path fill="#E1EAF8" d="M40 71.25a1.25 1.25 0 1 0 0-2.5 1.25 1.25 0 0 0 0 2.5M18.787 62.463a1.25 1.25 0 1 0 0-2.5 1.25 1.25 0 0 0 0 2.5"/><path fill="#E1EAF8" d="M18.787 62.463a1.25 1.25 0 1 0 0-2.5 1.25 1.25 0 0 0 0 2.5M10 41.25a1.25 1.25 0 1 0 0-2.5 1.25 1.25 0 0 0 0 2.5"/><path fill="#E1EAF8" d="M10 41.25a1.25 1.25 0 1 0 0-2.5 1.25 1.25 0 0 0 0 2.5M18.787 20.037a1.25 1.25 0 1 0 0-2.5 1.25 1.25 0 0 0 0 2.5"/><path fill="#E1EAF8" d="M18.787 20.037a1.25 1.25 0 1 0 0-2.5 1.25 1.25 0 0 0 0 2.5M40 11.25a1.25 1.25 0 1 0 0-2.5 1.25 1.25 0 0 0 0 2.5"/><path fill="#E1EAF8" d="M40 11.25a1.25 1.25 0 1 0 0-2.5 1.25 1.25 0 0 0 0 2.5"/><path stroke="#0166FF" stroke-linecap="round" stroke-linejoin="round" stroke-width="1.5" d="M44.377 43.06h8.096c.67 0 1.313-.27 1.787-.75s.74-1.131.74-1.81-.266-1.33-.74-1.81a2.5 2.5 0 0 0-1.787-.75h-8.095l4.047-7.1a2.58 2.58 0 0 0-.925-3.497 2.506 2.506 0 0 0-3.452.937L40 35.38m4.377 7.68L40 35.38m4.377 7.68H35.62m8.756 0 4.048 7.1a2.58 2.58 0 0 1-.925 3.497 2.5 2.5 0 0 1-1.918.256 2.5 2.5 0 0 1-.884-.442 2.6 2.6 0 0 1-.65-.75L40 45.62l-4.048 7.1a2.6 2.6 0 0 1-.65.751 2.52 2.52 0 0 1-1.868.507 2.537 2.537 0 0 1-1.675-.98 2.57 2.57 0 0 1-.501-1.892 2.6 2.6 0 0 1 .317-.946l4.046-7.1M40 35.38l-1.477 2.59M40 35.38l-4.048-7.1a2.6 2.6 0 0 0-.65-.751 2.52 2.52 0 0 0-1.868-.507 2.537 2.537 0 0 0-1.675.98 2.57 2.57 0 0 0-.501 1.892c.043.333.15.655.317.946l4.047 7.1 2.901.03M40 35.38l-4.379 7.68m0 0 2.902-5.09m-2.902 5.09h-8.094a2.5 2.5 0 0 1-1.787-.75A2.58 2.58 0 0 1 25 40.5c0-.679.266-1.33.74-1.81a2.5 2.5 0 0 1 1.787-.75l10.996.03"/><rect width="22" height="22" x="57.5" y="58" fill="#0166FF" rx="11"/><path stroke="#fff" stroke-linecap="round" stroke-linejoin="round" stroke-width="1.4" d="m64.5 68.813 2.813 2.812L72.937 66"/><path fill="#9A9A9A" fill-rule="evenodd" d="M4.916 40c0-19.377 15.707-35.084 35.083-35.084s35.084 15.707 35.084 35.083a34.94 34.94 0 0 1-3.574 15.444q.74.192 1.446.459a36.4 36.4 0 0 0 3.628-15.903c0-20.204-16.38-36.583-36.584-36.583S3.416 19.795 3.416 39.999c0 20.205 16.379 36.584 36.583 36.584a36.5 36.5 0 0 0 14.738-3.09 14 14 0 0 1-.408-1.46A35 35 0 0 1 40 75.082c-19.376 0-35.083-15.708-35.083-35.084" clip-rule="evenodd"/></svg>
